brandFactory_export/3.Masa/Jarabe _3Masa.svg

<?xml version="1.0" encoding="UTF-8"?>
<svg width="24px" height="24px" viewBox="0 0 24 24" version="1.1" xmlns="http://www.w3.org/2000/svg" xmlns:xlink="http://www.w3.org/1999/xlink">
    <title>3.Masa/Jarabe _3Masa</title>
    <g id="Symbols" stroke="none" stroke-width="1" fill="none" fill-rule="evenodd">
        <g id="3.Masa/Jarabe-_3Masa" fill="#5CB615" fill-rule="nonzero">
            <path d="M8.76638655,4.84369748 C8.3697479,4.84369748 8.04705882,4.5210084 8.04705882,4.12436975 L8.04705882,2.90420168 C8.04705882,2.50756303 8.3697479,2.18487395 8.76638655,2.18487395 C9.16302521,2.18487395 9.48235294,2.50756303 9.48235294,2.90420168 L9.48235294,4.12436975 C9.48571429,4.5210084 9.16302521,4.84369748 8.76638655,4.84369748 Z M10.8168067,4.84369748 C10.4201681,4.84369748 10.1008403,4.5210084 10.1008403,4.12436975 L10.1008403,2.90420168 C10.1008403,2.50756303 10.4235294,2.18487395 10.8168067,2.18487395 C11.2134454,2.18487395 11.5361345,2.50756303 11.5361345,2.90420168 L11.5361345,4.12436975 C11.5327731,4.5210084 11.2134454,4.84369748 10.8168067,4.84369748 Z M12.8638655,4.84369748 C12.4672269,4.84369748 12.1478992,4.5210084 12.1478992,4.12436975 L12.1478992,2.90420168 C12.1478992,2.50756303 12.4705882,2.18487395 12.8638655,2.18487395 C13.2605042,2.18487395 13.5798319,2.50756303 13.5798319,2.90420168 L13.5798319,4.12436975 C13.5831933,4.5210084 13.2605042,4.84369748 12.8638655,4.84369748 Z M14.9142857,4.84369748 C14.5176471,4.84369748 14.1983193,4.5210084 14.1983193,4.12436975 L14.1983193,2.90420168 C14.1983193,2.50756303 14.5210084,2.18487395 14.9142857,2.18487395 C15.3109244,2.18487395 15.6302521,2.50756303 15.6302521,2.90420168 L15.6302521,4.12436975 C15.6302521,4.5210084 15.3109244,4.84369748 14.9142857,4.84369748 Z M5.48907563,8.82689076 L18.2722689,8.82689076 C18.1176471,7.7512605 17.6033613,7.03193277 16.7327731,6.68571429 C16.4840336,6.8302521 16.1983193,6.92436975 15.8890756,6.92436975 L7.79495798,6.92436975 C7.5092437,6.92436975 7.24033613,6.83697479 7.00168067,6.71260504 C6.72268908,6.83697479 6.45714286,6.98151261 6.25546218,7.18319328 C5.84201681,7.57983193 5.59327731,8.12773109 5.48907563,8.82689076 Z M14.7596639,13.1831933 L13.0016807,13.1831933 L13.0016807,11.4151261 C13.0016807,11.1092437 12.7630252,10.8403361 12.5042017,10.8403361 L11.0386555,10.8403361 C10.7731092,10.8403361 10.5310924,11.1092437 10.5310924,11.4151261 L10.5310924,13.1831933 L8.7697479,13.1831933 C8.46386555,13.1831933 8.19495798,13.4117647 8.19495798,13.6806723 L8.19495798,15.1495798 C8.19495798,15.4285714 8.46386555,15.6571429 8.7697479,15.6571429 L10.5310924,15.6571429 L10.5411765,17.4252101 C10.5411765,17.7310924 10.7731092,18 11.0386555,18 L12.5042017,18 C12.7831933,18 13.0016807,17.7310924 13.0016807,17.4252101 L13.0016807,15.6504202 L14.7596639,15.6504202 C15.0655462,15.6504202 15.3344538,15.4117647 15.3344538,15.1529412 L15.3344538,13.6840336 C15.3344538,13.4252101 15.0655462,13.1831933 14.7596639,13.1831933 L14.7596639,13.1831933 Z M15.2302521,22.1848739 C16.8,22.1848739 17.7747899,21.5596639 18.1378151,20.3327731 L5.61344538,20.3327731 C5.74789916,20.7731092 5.95630252,21.1394958 6.24537815,21.4252101 C6.77310924,21.9226891 7.54621849,22.1848739 8.5512605,22.1848739 L15.2302521,22.1848739 Z M7.52605042,1.70756303 L7.52605042,5.22016807 C7.52605042,5.36470588 7.64033613,5.48907563 7.79495798,5.48907563 L15.8890756,5.48907563 C16.0336134,5.48907563 16.1579832,5.36470588 16.1579832,5.22016807 L16.1579832,1.70756303 C16.1579832,1.56302521 16.0336134,1.43865546 15.8890756,1.43865546 L7.79495798,1.43865546 C7.64033613,1.43865546 7.52605042,1.56302521 7.52605042,1.70756303 Z M17.5630252,5.4789916 C18.9815126,6.17815126 19.7546218,7.6 19.7546218,9.55630252 L19.7445378,19.0554622 C19.7445378,21.9159664 18.0605042,23.6235294 15.2302521,23.6235294 L8.5512605,23.6235294 C7.15294118,23.6235294 6.04369748,23.2302521 5.25042017,22.4638655 C4.42689076,21.6571429 4.00672269,20.5142857 4.00672269,19.0588235 L4.00672269,9.55966387 C4.00672269,8.10084034 4.4302521,6.95798319 5.2605042,6.15462185 C5.5092437,5.90588235 5.80504202,5.71428571 6.1210084,5.5394958 C6.10420168,5.43529412 6.0907563,5.32773109 6.0907563,5.22352941 L6.0907563,1.71092437 C6.0907563,0.769747899 6.85714286,0.00336134454 7.79495798,0.00336134454 L15.8890756,0.00336134454 C16.8268908,0.00336134454 17.5932773,0.769747899 17.5932773,1.71092437 L17.5932773,5.22352941 C17.589916,5.30756303 17.5731092,5.39159664 17.5630252,5.4789916 Z" id="Jarabe-_3Masa"></path>
        </g>
    </g>
</svg>

<svg width="24" height="24" viewBox="0 0 24 24" xmlns="http://www.w3.org/2000/svg"><path d="M8.766 4.844a.72.72 0 01-.719-.72v-1.22a.717.717 0 111.435 0v1.22a.715.715 0 01-.716.72zm2.05 0a.717.717 0 01-.715-.72v-1.22a.72.72 0 01.716-.72.72.72 0 01.72.72v1.22a.722.722 0 01-.72.72zm2.048 0a.717.717 0 01-.716-.72v-1.22a.72.72 0 01.716-.72c.397 0 .716.324.716.72v1.22a.715.715 0 01-.716.72zm2.05 0a.717.717 0 01-.716-.72v-1.22a.72.72 0 01.716-.72c.397 0 .716.324.716.72v1.22c0 .397-.32.72-.716.72zM5.49 8.827h12.783c-.154-1.076-.669-1.795-1.54-2.141a1.676 1.676 0 01-.843.238H7.795c-.286 0-.555-.087-.793-.211-.28.124-.545.269-.747.47-.413.397-.662.945-.766 1.644zm9.27 4.356h-1.757v-1.768c0-.306-.239-.575-.498-.575H11.04c-.266 0-.508.27-.508.575v1.768H8.77c-.306 0-.575.229-.575.498v1.469c0 .279.269.507.575.507h1.761l.01 1.768c0 .306.232.575.498.575h1.465c.28 0 .498-.269.498-.575V15.65h1.758c.306 0 .574-.238.574-.497v-1.469c0-.259-.268-.5-.574-.5zm.471 9.002c1.57 0 2.545-.625 2.908-1.852H5.613c.135.44.343.806.632 1.092.528.498 1.301.76 2.306.76h6.68zM7.526 1.708V5.22c0 .145.114.27.269.27h8.094a.274.274 0 00.269-.27V1.708a.274.274 0 00-.269-.27H7.795a.268.268 0 00-.269.27zm10.037 3.771c1.419.7 2.192 2.121 2.192 4.077l-.01 9.5c0 2.86-1.684 4.568-4.515 4.568H8.551c-1.398 0-2.507-.394-3.3-1.16-.824-.807-1.244-1.95-1.244-3.405v-9.5c0-1.458.423-2.601 1.254-3.404.248-.25.544-.44.86-.616a2.01 2.01 0 01-.03-.315V1.71A1.71 1.71 0 017.795.003h8.094a1.71 1.71 0 011.704 1.708v3.513c-.003.084-.02.168-.03.255z" fill="#5CB615" fill-rule="nonzero"/></svg>
